X: 45
M:4/4
L:1/8
K:F
fcfg (3fga gf|ecgc acgc|fcfg (3fga gf|dfeg (3fff f2|
fcfg (3fga gf|gfga baga|fdcB AfdB|cABG F/2F/2F F2||

